X: 21747
T: King Of The Clans
R: reel
M: 4/4
K: Gmajor
|:d2 GA Bdge|dedB AG E2|DGBG dGBd|cege dcBc|
dGBd gdBd|gdbg agef|gage dBge|1 dBAc BGGB:|2 dBAc BGBd||
g2bg edge|dBGB AGE2|DGBG dGBd|cege dcBd|
g2bg edge|dBGB AGEG|DGBd gece|dBAc BGBd|
g2bg edge|dBGB AGE2|DGBG dGBd|cege dcBc|
dGBd gdBd|gdbg agef|gage dBge|dBAc BGGB||

